X:3798
L:1/4
M:3/4
K:G
 G A | B d c | B2 A | G A G | F2 E | (E3 | E2) F | G F E | G2 A | B2 c | d B G | (A3 | A2) A | 
 G F E | G2 A | B2 c | d B G | (A3 | A) G A | B d c | B2 A | G A G | F2 E | (E3 | E3) ||

